vectors/microsoft-edge/microsoft-edge.svg

<svg version="1.1" xmlns="http://www.w3.org/2000/svg" xmlns:xlink="http://www.w3.org/1999/xlink" viewBox="0 0 256 278">
    <g>
        <path d="M51.8492788,73.4536688 C18.8565252,93.9911772 0,123.175978 0,123.175978 C0,123.175978 4.8863269,61.9804871 51.8492788,26.1725973 C70.5270078,11.9313703 96.0627587,0 130.408554,0 C143.311187,0 170.368112,2.24482009 194.739636,17.270627 C219.11116,32.2964338 228.957822,44.8828883 239.937735,63.3103377 C244.675613,71.261858 248.534399,81.4769602 250.941534,91.33052 C255.451567,109.792251 256,131.871788 256,131.871788 L256,160.957341 L81.821697,160.957341 C81.821697,160.957341 77.5677582,219.476655 157.671035,219.476655 C185.529919,219.476655 195.285206,215.100151 204.448019,212.386757 C218.792177,208.139004 232.642935,198.670821 232.642935,198.670821 L232.669333,257.138595 C232.669333,257.138595 199.886097,277.331605 150.359263,277.331605 C136.412168,277.331605 121.713928,276.161885 107.538919,271.562892 C95.1524462,267.544178 69.21172,256.704359 51.8492788,231.299437 C45.7075439,222.31278 39.0524405,210.354366 35.756216,198.670821 C32.1926974,186.039845 32.2364085,173.769183 32.2364085,167.008895 C32.2364085,141.724664 40.8746995,117.584498 55.8643735,100.133181 C75.2805118,77.5284747 99.8217413,67.5768476 99.8217413,67.5768476 C99.8217413,67.5768476 91.8280069,76.8961664 86.9109612,88.4989599 C81.9939161,100.101754 80.6488466,111.775573 80.6488466,111.775573 L178.999921,111.775573 C178.999921,111.775573 184.752182,53.0061012 123.34914,53.0061012 C100.212796,53.0061012 71.796955,61.0365306 51.8492788,73.4536688 L51.8492788,73.4536688 Z" fill="#3177BC" />
    </g>
</svg>

<svg xmlns="http://www.w3.org/2000/svg" viewBox="0 0 256 278"><path d="M51.85 73.454C18.856 93.99 0 123.176 0 123.176S4.886 61.98 51.85 26.173C70.526 11.93 96.062 0 130.408 0c12.902 0 39.96 2.245 64.33 17.27 24.372 15.026 34.219 27.613 45.199 46.04 4.738 7.952 8.596 18.167 11.004 28.02 4.51 18.462 5.058 40.542 5.058 40.542v29.085H81.822s-4.254 58.52 75.849 58.52c27.859 0 37.614-4.377 46.777-7.09 14.344-4.248 28.195-13.716 28.195-13.716l.026 58.468s-32.783 20.193-82.31 20.193c-13.947 0-28.645-1.17-42.82-5.77-12.387-4.018-38.327-14.858-55.69-40.263-6.141-8.986-12.797-20.945-16.093-32.628-3.563-12.631-3.52-24.902-3.52-31.662 0-25.284 8.639-49.425 23.628-66.876 19.417-22.605 43.958-32.556 43.958-32.556s-7.994 9.32-12.911 20.922c-4.917 11.603-6.262 23.277-6.262 23.277h98.35s5.753-58.77-55.65-58.77c-23.136 0-51.552 8.03-71.5 20.448z" fill="#3177BC"/></svg>
